svg/media/shuffle_2_fill.svg

<?xml version="1.0" encoding="UTF-8"?>
<svg width="24px" height="24px" viewBox="0 0 24 24" version="1.1" xmlns="http://www.w3.org/2000/svg" xmlns:xlink="http://www.w3.org/1999/xlink">
    <title>shuffle_2_fill</title>
    <g id="Icon" stroke="none" stroke-width="1" fill="none" fill-rule="evenodd">
        <g id="Media" transform="translate(-720.000000, -240.000000)" fill-rule="nonzero">
            <g id="shuffle_2_fill" transform="translate(720.000000, 240.000000)">
                <path d="M24,0 L24,24 L0,24 L0,0 L24,0 Z M12.5935,23.2578 L12.5819,23.2595 L12.5109,23.295 L12.4919,23.2987 L12.4767,23.295 L12.4057,23.2595 C12.3958,23.2564 12.387,23.259 12.3821,23.2649 L12.378,23.2758 L12.3609,23.7031 L12.3659,23.7235 L12.3769,23.7357 L12.4805,23.8097 L12.4953,23.8136 L12.5071,23.8097 L12.6107,23.7357 L12.6233,23.7197 L12.6267,23.7031 L12.6096,23.2758 C12.6076,23.2657 12.601,23.2593 12.5935,23.2578 Z M12.8584,23.1453 L12.8445,23.1473 L12.6598,23.2397 L12.6499,23.2499 L12.6472,23.2611 L12.6651,23.6906 L12.6699,23.7034 L12.6784,23.7105 L12.8793,23.8032 C12.8914,23.8069 12.9022,23.803 12.9078,23.7952 L12.9118,23.7812 L12.8777,23.1665 C12.8753,23.1546 12.8674,23.147 12.8584,23.1453 Z M12.143,23.1473 C12.1332,23.1424 12.1222,23.1453 12.1156,23.1526 L12.1099,23.1665 L12.0758,23.7812 C12.0751,23.7927 12.0828,23.8019 12.0926,23.8046 L12.1083,23.8032 L12.3092,23.7105 L12.3186,23.7024 L12.3225,23.6906 L12.3404,23.2611 L12.3372,23.2485 L12.3278,23.2397 L12.143,23.1473 Z" id="MingCute"></path>
                <path d="M6.30143,5.49998 C7.803076,5.49998 9.20012225,6.24845935 10.0332987,7.48541908 L10.1601,7.68475 L14.4123,14.7717 C14.65629,15.17832 15.076212,15.442947 15.5418666,15.4918062 L15.6986,15.5 L16.4403,15.5 L16.4606259,15.1876148 C16.4641,15.1391556 16.4676,15.0925333 16.4711,15.0478 C16.5275,14.3291 17.2199,13.8784 17.802,14.1828 L18.1160422,14.3513656 L18.1160422,14.3513656 L18.4844875,14.5597 C18.746875,14.711975 19.0414,14.89115 19.3598,15.098 C19.610525,15.260825 19.8406063,15.4177859 20.0483352,15.5647643 L20.4334836,15.8441904 L20.4334836,15.8441904 L20.7559883,16.0896744 C20.80435,16.1273531 20.849975,16.1633125 20.8928,16.1974 C21.3819,16.5868 21.3627,17.392 20.8435,17.8032 L20.7070758,17.9100738 L20.7070758,17.9100738 L20.3873898,18.1522559 L20.3873898,18.1522559 L20.0071602,18.4270535 L20.0071602,18.4270535 L19.5686742,18.7281105 C19.4908656,18.7801219 19.410725,18.8329625 19.3283,18.8865 C19.1636,18.993475 19.0056,19.0929563 18.8553062,19.1851 L18.42855,19.439675 L18.42855,19.439675 L18.0540687,19.6511625 L18.0540687,19.6511625 L17.7379,19.8205 L17.7379,19.8205 C17.161,20.1212 16.5313,19.7362 16.4765,19.0647 L16.4377,18.5 L15.6986,18.5 C14.196935,18.5 12.7998697,17.7514665 11.9667,16.5145271 L11.8399,16.3152 L7.58767,9.22823 C7.343689,8.82161 6.9238003,8.5570235 6.45815956,8.5081724 L6.30143,8.49998 L4,8.49998 C3.17157,8.49998 2.5,7.8284 2.5,6.99998 C2.5,6.22028118 3.09488554,5.579531 3.85553954,5.50684655 L4,5.49998 L6.30143,5.49998 Z M7.30825012,15.1119238 L7.41948,15 C7.97173,14.3825 8.92,14.3296 9.53751,14.8819 C10.155,15.4341 10.2079,16.3824 9.65568,16.9999 C8.86377375,17.8853687 7.74572297,18.4290309 6.54302637,18.4935298 L6.30143,18.5 L4,18.5 C3.17157,18.5 2.5,17.8284 2.5,17 C2.5,16.2202353 3.09488554,15.5795433 3.85553954,15.5068659 L4,15.5 L6.30143,15.5 C6.67851125,15.5 7.03606906,15.3583594 7.30825012,15.1119238 Z M17.802,4.18278 L18.1160422,4.35137062 L18.1160422,4.35137062 L18.4844875,4.5597075 C18.6156813,4.6358425 18.7549094,4.71869937 18.9011391,4.80837562 L19.3598,5.09796 L19.3598,5.09796 C19.610525,5.26079625 19.8406063,5.41776422 20.0483352,5.56474957 L20.4334836,5.84419105 L20.4334836,5.84419105 L20.7559883,6.08969785 C20.80435,6.12738141 20.849975,6.16334625 20.8928,6.19744 C21.3819,6.58685 21.3627,7.39203 20.8435,7.80324 L20.7070758,7.91010795 L20.7070758,7.91010795 L20.3873898,8.15226932 L20.3873898,8.15226932 L20.0071602,8.42704303 L20.0071602,8.42704303 L19.5686742,8.72808314 C19.4908656,8.78009281 19.410725,8.8329325 19.3283,8.88647 C19.1636,8.993455 19.0056,9.0929425 18.8553063,9.18509047 L18.42855,9.43967375 L18.42855,9.43967375 L18.0540688,9.65116766 L18.0540688,9.65116766 L17.7379,9.82052 L17.7379,9.82052 C17.161,10.1212 16.5313,9.73619 16.4765,9.06466 L16.4377,8.49998 L15.6986,8.49998 C15.321475,8.49998 14.96395,8.64161297 14.6917443,8.88799971 L14.5805,8.9999 C14.0283,9.61741 13.08,9.67032 12.4625,9.11808 C11.845,8.56583 11.7921,7.61756 12.3443,7.00005 C13.1362063,6.11455312 14.2542746,5.57094199 15.4569981,5.50644957 L15.6986,5.49998 L16.4403,5.49998 L16.4711,5.04783 L16.4711,5.04783 C16.5275,4.32907 17.2199,3.87837 17.802,4.18278 Z" id="形状" fill="#09244B"></path>
            </g>
        </g>
    </g>
</svg>

<svg xmlns="http://www.w3.org/2000/svg" width="24" height="24"><g fill="none" fill-rule="nonzero"><path d="M24 0v24H0V0h24ZM12.594 23.258l-.012.002-.071.035-.02.004-.014-.004-.071-.036c-.01-.003-.019 0-.024.006l-.004.01-.017.428.005.02.01.013.104.074.015.004.012-.004.104-.074.012-.016.004-.017-.017-.427c-.002-.01-.009-.017-.016-.018Zm.264-.113-.014.002-.184.093-.01.01-.003.011.018.43.005.012.008.008.201.092c.012.004.023 0 .029-.008l.004-.014-.034-.614c-.003-.012-.01-.02-.02-.022Zm-.715.002a.023.023 0 0 0-.027.006l-.006.014-.034.614c0 .012.007.02.017.024l.015-.002.201-.093.01-.008.003-.011.018-.43-.003-.012-.01-.01-.184-.092Z"/><path fill="#09244B" d="M6.301 5.5a4.5 4.5 0 0 1 3.732 1.985l.127.2 4.252 7.087a1.5 1.5 0 0 0 1.13.72l.157.008h.741l.02-.312.011-.14c.056-.719.749-1.17 1.331-.865l.314.168.368.209a20.468 20.468 0 0 1 1.564 1.005l.385.28.323.245.137.107c.489.39.47 1.195-.05 1.606l-.136.107-.32.242-.38.275-.438.301a21.82 21.82 0 0 1-.714.457l-.426.255-.375.211-.316.17c-.577.3-1.207-.085-1.261-.756l-.04-.565H15.7a4.5 4.5 0 0 1-3.732-1.985l-.127-.2-4.252-7.087a1.5 1.5 0 0 0-1.13-.72L6.301 8.5H4a1.5 1.5 0 0 1-.144-2.993L4 5.5h2.301Zm1.007 9.612L7.42 15a1.5 1.5 0 1 1 2.237 2 4.5 4.5 0 0 1-3.113 1.494l-.242.006H4a1.5 1.5 0 0 1-.144-2.993L4 15.5h2.301a1.5 1.5 0 0 0 1.007-.388Zm10.494-10.93.314.17.368.208c.132.076.27.159.417.248l.459.29c.25.163.48.32.688.467l.385.28.323.245.137.107c.489.39.47 1.195-.05 1.606l-.136.107-.32.242-.38.275-.438.301a21.846 21.846 0 0 1-.714.457l-.426.255-.375.211-.316.17c-.577.3-1.207-.085-1.261-.756l-.04-.565H15.7a1.5 1.5 0 0 0-1.007.388L14.58 9a1.5 1.5 0 1 1-2.237-2 4.5 4.5 0 0 1 3.113-1.494l.242-.006h.741l.031-.452c.056-.719.749-1.17 1.331-.865Z"/></g></svg>
